X:1
T: Royal Circus
C:
R:Jig
Q:180
K:F
M:6/8
L:1/16
|:FG|A2F2c2 c2B2A2|B2G2d2 d2c2B2|A2F2c2 c2B2A2|B2G2G2 G4FG|
A2F2c2 c2B2A2|B2G2d2 d2c2B2|A2c2f2 g2a2e2|f4f2 f4:|
|:ef|g2e2c2 c2d2c2|a2f2c2 c2d2c2|b2a2g2 a2g2f2|e2f2g2 c4c2|
d2B2d2 d2f2b2|c2A2c2 c2f2a2|b2a2g2 a2g2f2|c2f2e2 f4:|
